X:31
T:Grimaldays Hornpipe. CAM2.[32]
T:Harlequin's Hp,aka. CAM2.[32]
B:Anon MS#2, early 19thC, Northumbria, Cocks Coll.
Z:Village Music Project 2016 Steve Mansfield
M:C|
L:1/8
Q:2/4=90
K:G
D2 | G2G2 GBAc | B2B2 Bdce | dgfe dcBA | GBdB cAFD |
G2G2 GBAc | B2B2 Bdce | dgfe dcBA | A2G2G2 :|
|: (DC) | B,GDG B,GDG | CGEG CGEG | cAFD cAFD | BGDB, BGDC |
B,GDG B,GDG | CGEG CEGE | cAFD cAFD | G2G2G2 :|

